assets/Ballot box with ballot/Flat/ballot_box_with_ballot_flat.svg

<svg width="32" height="32" viewBox="0 0 32 32" fill="none" xmlns="http://www.w3.org/2000/svg">
<path d="M27.7115 30H4.28846C3.02442 30 2 29.0487 2 27.875V15C2 13.8262 3.02442 12.875 4.28846 12.875H27.7115C28.9756 12.875 30 13.8262 30 15V27.875C30 29.0487 28.9756 30 27.7115 30Z" fill="#636363"/>
<path d="M27.7115 6H4.28846C3.02442 6 2 6.95125 2 8.125V15H30V8.125C30 6.95125 28.9756 6 27.7115 6Z" fill="#9B9B9B"/>
<path d="M21.4533 12L16 11L10.5467 12C9.80836 12 9.20932 11.4437 9.20932 10.7581C9.20932 10.0725 9.80836 9.51624 10.5467 9.51624H21.4533C22.1916 9.51624 22.7907 10.0725 22.7907 10.7581C22.7907 11.4437 22.1923 12 21.4533 12Z" fill="#321B41"/>
<path d="M21.4533 12H10.6154V3.25C10.6154 2.55937 11.2178 2 11.9615 2H20.1071C20.8509 2 21.4533 2.55937 21.4533 3.25V12Z" fill="#F3EEF8"/>
<path d="M26.3243 27.29C25.4836 27.29 24.8025 26.6575 24.8025 25.8768V17.9618C24.8025 17.1812 25.4836 16.5487 26.3243 16.5487C27.165 16.5487 27.8461 17.1812 27.8461 17.9618V25.8768C27.8461 26.6568 27.165 27.29 26.3243 27.29Z" fill="#D3D3D3"/>
<path d="M14.5408 10.2662C14.5388 10.2662 14.5367 10.2662 14.534 10.2662C14.3032 10.2644 14.0844 10.1712 13.9323 10.01L12.1608 8.12873C11.8673 7.81686 11.9016 7.34311 12.2368 7.07061C12.5727 6.79811 13.0829 6.82998 13.3764 7.14123L14.5502 8.38749L18.6311 4.19436C18.9299 3.88686 19.4408 3.86311 19.7719 4.14061C20.1031 4.41811 20.1287 4.89248 19.8298 5.19998L15.1398 10.0194C14.987 10.1769 14.7689 10.2662 14.5408 10.2662Z" fill="#44911B"/>
</svg>

<svg xmlns="http://www.w3.org/2000/svg" width="32" height="32" fill="none"><path fill="#636363" d="M27.712 30H4.288C3.024 30 2 29.049 2 27.875V15c0-1.174 1.024-2.125 2.288-2.125h23.424c1.264 0 2.288.951 2.288 2.125v12.875C30 29.049 28.976 30 27.712 30Z"/><path fill="#9B9B9B" d="M27.712 6H4.288C3.024 6 2 6.951 2 8.125V15h28V8.125C30 6.951 28.976 6 27.712 6Z"/><path fill="#321B41" d="M21.453 12 16 11l-5.453 1c-.739 0-1.338-.556-1.338-1.242 0-.685.6-1.242 1.338-1.242h10.906c.739 0 1.338.556 1.338 1.242 0 .686-.599 1.242-1.338 1.242Z"/><path fill="#F3EEF8" d="M21.453 12H10.615V3.25c0-.69.603-1.25 1.346-1.25h8.146c.744 0 1.346.56 1.346 1.25V12Z"/><path fill="#D3D3D3" d="M26.324 27.29c-.84 0-1.522-.633-1.522-1.413v-7.915c0-.78.682-1.413 1.522-1.413.841 0 1.522.632 1.522 1.413v7.915c0 .78-.681 1.413-1.522 1.413Z"/><path fill="#44911B" d="M14.54 10.266h-.006a.836.836 0 0 1-.602-.256l-1.771-1.881a.714.714 0 0 1 .076-1.058.852.852 0 0 1 1.14.07l1.173 1.246 4.081-4.193a.852.852 0 0 1 1.14-.053.713.713 0 0 1 .059 1.059l-4.69 4.82a.835.835 0 0 1-.6.246Z"/></svg>
